images/tomato.svg

<?xml version="1.0" encoding="UTF-8"?>
<svg width="210px" height="205px" viewBox="0 0 210 205" version="1.1" xmlns="http://www.w3.org/2000/svg" xmlns:xlink="http://www.w3.org/1999/xlink">
    <!-- Generator: Sketch 42 (36781) - http://www.bohemiancoding.com/sketch -->
    <title>tomato</title>
    <desc>Created with Sketch.</desc>
    <defs>
        <path d="M88.0351562,18.8945312 C82.2278646,23.9661458 62.908962,34.4083322 70.6132812,34.109375 L67.3046875,45.2421875 C76.6154354,44.8808947 84.0155656,38.977655 92.5585938,35.2578125 C100.34026,31.8694853 95.1010637,57.8044088 102.367188,50.3320312 C127,25 101.854823,41.025163 136.429688,42.7539062 C138.861825,42.8755131 136.732385,37.801578 136.074219,35.4570312 C135.145519,32.1487814 134.156129,28.5545494 131.753906,26.0976562 C128.822885,23.0999307 118.203104,18.8376829 113.402344,18.7421875 C105.799345,18.5909507 88.0351562,18.8945312 88.0351562,18.8945312 Z" id="path-1"></path>
        <filter x="-50%" y="-50%" width="200%" height="200%" filterUnits="objectBoundingBox" id="filter-2">
            <feOffset dx="1" dy="1" in="SourceAlpha" result="shadowOffsetOuter1"></feOffset>
            <feColorMatrix values="0 0 0 0 0.119733333   0 0 0 0 0.2   0 0 0 0 0.028  0 0 0 1 0" type="matrix" in="shadowOffsetOuter1"></feColorMatrix>
        </filter>
    </defs>
    <g id="Page-1" stroke="none" stroke-width="1" fill="none" fill-rule="evenodd">
        <g id="tomato" transform="translate(0.008450, 0.000000)">
            <path d="M105,204.135577 C162.989899,204.135577 210,160.086087 210,105.748288 C210,56.629484 180.514668,32.5145178 145.373514,29.1548326 C130.816326,27.7630864 120,37.4671437 106.856146,37.4671437 C93.7122919,37.4671437 78.789522,30.0261344 67,30.0261344 C39.0101013,30.0261344 0,51.4104894 0,105.748288 C0,160.086087 47.0101013,204.135577 105,204.135577 Z" id="Oval-19" fill="#F03500"></path>
            <path d="M23.5509058,167.84492 C42.8042031,189.990967 72.1392553,204.135577 105,204.135577 C162.989899,204.135577 210,160.086087 210,105.748288 C210,76.773176 199.739685,56.4989073 184.110611,44.0533677 C193.968679,56.4324264 200,73.533049 200,95.7482883 C200,150.086087 152.989899,194.135577 95,194.135577 C67.4023705,194.135577 42.2914971,184.159042 23.5509058,167.84492 L23.5509058,167.84492 Z" id="Combined-Shape" fill="#C22A00"></path>
            <path d="M157.732671,118.041803 C147.072518,138.041803 113.417738,164.757414 116.158073,169.041803 C119.356119,174.041803 154.074398,149.93914 155.991143,148.041803 C163.062748,141.041803 171.590871,134.041803 178.641681,113.041803 C180.714746,106.867425 183.555337,52.8906717 176.507621,62.0418035 C172.656886,67.0418035 163.198483,107.787145 157.732671,118.041803 Z" id="Path-2" fill="#F4582D" transform="translate(148.500000, 115.361488) rotate(-8.000000) translate(-148.500000, -115.361488) "></path>
            <path d="M48.1562865,68.0949014 C39.9561684,76.8120031 14.0678762,88.4561378 16.1758261,90.3235106 C18.6358615,92.502786 45.34223,81.9975176 46.8166491,81.1705539 C52.2563455,78.1195683 58.81644,75.0685827 64.2401403,65.915626 C65.8348058,63.2244919 68.0198754,39.6984495 62.5985554,43.6870168 C59.6364518,45.8662922 52.3607572,63.6253562 48.1562865,68.0949014 Z" id="Path-2-Copy" fill="#F4582D" transform="translate(41.054232, 66.926672) scale(-1, -1) rotate(-8.000000) translate(-41.054232, -66.926672) "></path>
            <path d="M108.651571,1.84022124 C106.769341,6.3803959 104.397982,10.7692264 103.004882,15.4607452 C102.133722,18.3945364 99.8358452,22.1897163 101.911974,24.5370444 C103.848054,26.7260286 113.190693,24.5370444 111.032549,24.5370444 C110.067625,24.5370444 102.056629,14.4636391 112.936463,3.5979695 C114.406019,2.13032679 120.638523,1.74016876 118.695913,0.876294772 C115.995665,-0.324498749 112.791899,1.77271939 109.839891,2.22093169 L108.651571,1.84022124 Z" id="Path-4" fill="#1D3006"></path>
            <g id="Path-3">
                <use fill="black" fill-opacity="1" filter="url(#filter-2)" xlink:href="#path-1"></use>
                <use fill="#33560B" fill-rule="evenodd" xlink:href="#path-1"></use>
            </g>
        </g>
    </g>
</svg>

<?xml version="1.0" encoding="UTF-8" standalone="no"?>
<svg
   xmlns:dc="http://purl.org/dc/elements/1.1/"
   xmlns:cc="http://creativecommons.org/ns#"
   xmlns:rdf="http://www.w3.org/1999/02/22-rdf-syntax-ns#"
   xmlns:svg="http://www.w3.org/2000/svg"
   xmlns="http://www.w3.org/2000/svg"
   xmlns:xlink="http://www.w3.org/1999/xlink"
   xmlns:sodipodi="http://sodipodi.sourceforge.net/DTD/sodipodi-0.dtd"
   xmlns:inkscape="http://www.inkscape.org/namespaces/inkscape"
   width="210px"
   height="205px"
   viewBox="0 0 210 205"
   version="1.1"
   id="svg2"
   inkscape:version="0.91 r13725"
   sodipodi:docname="tomato.svg">
  <metadata
     id="metadata30">
    <rdf:RDF>
      <cc:Work
         rdf:about="">
        <dc:format>image/svg+xml</dc:format>
        <dc:type
           rdf:resource="http://purl.org/dc/dcmitype/StillImage" />
      </cc:Work>
    </rdf:RDF>
  </metadata>
  <sodipodi:namedview
     pagecolor="#ffffff"
     bordercolor="#666666"
     borderopacity="1"
     objecttolerance="10"
     gridtolerance="10"
     guidetolerance="10"
     inkscape:pageopacity="0"
     inkscape:pageshadow="2"
     inkscape:window-width="1920"
     inkscape:window-height="1027"
     id="namedview28"
     showgrid="false"
     inkscape:zoom="1.1512195"
     inkscape:cx="105"
     inkscape:cy="102.5"
     inkscape:window-x="-8"
     inkscape:window-y="-8"
     inkscape:window-maximized="1"
     inkscape:current-layer="svg2" />
  <!-- Generator: Sketch 42 (36781) - http://www.bohemiancoding.com/sketch -->
  <title
     id="title4">tomato</title>
  <desc
     id="desc6">Created with Sketch.</desc>
  <defs
     id="defs8">
    <path
       d="M88.0351562,18.8945312 C82.2278646,23.9661458 62.908962,34.4083322 70.6132812,34.109375 L67.3046875,45.2421875 C76.6154354,44.8808947 84.0155656,38.977655 92.5585938,35.2578125 C100.34026,31.8694853 95.1010637,57.8044088 102.367188,50.3320312 C127,25 101.854823,41.025163 136.429688,42.7539062 C138.861825,42.8755131 136.732385,37.801578 136.074219,35.4570312 C135.145519,32.1487814 134.156129,28.5545494 131.753906,26.0976562 C128.822885,23.0999307 118.203104,18.8376829 113.402344,18.7421875 C105.799345,18.5909507 88.0351562,18.8945312 88.0351562,18.8945312 Z"
       id="path-1" />
    <filter
       x="-50%"
       y="-50%"
       width="200%"
       height="200%"
       filterUnits="objectBoundingBox"
       id="filter-2">
      <feOffset
         dx="1"
         dy="1"
         in="SourceAlpha"
         result="shadowOffsetOuter1"
         id="feOffset12" />
      <feColorMatrix
         values="0 0 0 0 0.119733333   0 0 0 0 0.2   0 0 0 0 0.028  0 0 0 1 0"
         type="matrix"
         in="shadowOffsetOuter1"
         id="feColorMatrix14" />
    </filter>
  </defs>
  <g
     id="Page-1"
     transform="matrix(0.74404676,0,0,0.74404676,1.7394509,29.664415)"
     style="fill:none;fill-rule:evenodd;stroke:none;stroke-width:1">
    <g
       id="tomato"
       transform="translate(0.00845,0)">
      <path
         d="m 105,204.13558 c 57.9899,0 105,-44.04949 105,-98.38729 C 210,56.629484 180.51467,32.514518 145.37351,29.154833 130.81633,27.763086 120,37.467144 106.85615,37.467144 c -13.143858,0 -28.066628,-7.44101 -39.85615,-7.44101 -27.989899,0 -67,21.384355 -67,75.722156 0,54.3378 47.010101,98.38729 105,98.38729 z"
         id="Oval-19"
         inkscape:connector-curvature="0"
         style="fill:#f03500" />
      <path
         d="M 23.550906,167.84492 C 42.804203,189.99097 72.139255,204.13558 105,204.13558 c 57.9899,0 105,-44.04949 105,-98.38729 C 210,76.773176 199.73968,56.498907 184.11061,44.053368 193.96868,56.432426 200,73.533049 200,95.748288 c 0,54.337802 -47.0101,98.387292 -105,98.387292 -27.597629,0 -52.708503,-9.97654 -71.449094,-26.29066 l 0,0 z"
         id="Combined-Shape"
         inkscape:connector-curvature="0"
         style="fill:#c22a00" />
      <path
         d="m 157.73267,118.0418 c -10.66015,20 -44.31493,46.71561 -41.5746,51 3.19805,5 37.91633,-19.10266 39.83307,-21 7.07161,-7 15.59973,-14 22.65054,-35 2.07307,-6.17438 4.91366,-60.151128 -2.13406,-50.999997 -3.85073,5 -13.30914,45.745337 -18.77495,55.999997 z"
         id="Path-2"
         transform="matrix(0.99026807,-0.1391731,0.1391731,0.99026807,-14.610024,21.789896)"
         inkscape:connector-curvature="0"
         style="fill:#f4582d" />
      <path
         d="m 48.156286,68.094901 c -8.200118,8.717102 -34.08841,20.361237 -31.98046,22.22861 2.460035,2.179275 29.166404,-8.325993 30.640823,-9.152957 C 52.256346,78.119568 58.81644,75.068583 64.24014,65.915626 65.834806,63.224492 68.019875,39.69845 62.598555,43.687017 59.636452,45.866292 52.360757,63.625356 48.156286,68.094901 Z"
         id="Path-2-Copy"
         transform="matrix(-0.99026807,0.1391731,-0.1391731,-0.99026807,91.02332,127.48837)"
         inkscape:connector-curvature="0"
         style="fill:#f4582d" />
      <path
         d="m 108.65157,1.8402212 c -1.88223,4.5401747 -4.25359,8.9290048 -5.64669,13.6205238 -0.87116,2.933791 -3.169035,6.728971 -1.09291,9.076299 1.93608,2.188985 11.27872,0 9.12058,0 -0.96492,0 -8.97592,-10.073405 1.90391,-20.9390745 1.46956,-1.4676427 7.70206,-1.8578007 5.75945,-2.72167473 -2.70024,-1.20079352 -5.90401,0.89642463 -8.85602,1.34463693 l -1.18832,-0.3807105 z"
         id="Path-4"
         inkscape:connector-curvature="0"
         style="fill:#1d3006" />
      <g
         id="Path-3">
        <use
           xlink:href="#path-1"
           id="use24"
           style="fill:#000000;fill-opacity:1;filter:url(#filter-2)"
           x="0"
           y="0"
           width="100%"
           height="100%" />
        <use
           xlink:href="#path-1"
           id="use26"
           style="fill:#33560b;fill-rule:evenodd"
           x="0"
           y="0"
           width="100%"
           height="100%" />
      </g>
    </g>
  </g>
</svg>
